X: 1
T: Miss McLeod's
R: reel
M: 4/4
L: 1/8
K: Gmaj
|:G2 BG AGBG|B2 BA BcBA|G2 BG AGBG|A2 AG AcBA|G2 BG AGBG| B2 BA B2 d2|e2 ef edef|gfed BcBA:||:G2 gf edeg|B2 BA BcBA| G2 gf edeg|a2 ag aeef|g2 gf edeg|BcBA B2 d2|edef edef|gfed BcBA:|


Tune 75	Setting 12560

